X:1
T:Mazurka : Petite fleur des champs
Z:Ren Quiniou (http://www.irisa.fr/prive/quiniou)
R:mazurka
C:Trad.
S:
A:France
M:3/4
L:1/8
K:C
Q:1/4=150
Gc | e2 eg ec | e2 eg ec | d2 df ed | e2c2 Gc |
e2 eg ec | e2 eg ec | d2 df ed | c4 :|
ge | cG ce ge |f2  d2 fd | BG Bd fd | e2 c2 ge |
cG ce ge |f2  d2 fd | B2 GG AB | c4 :|
